<?xml version="1.0" encoding="UTF-8"?>
<map version="1.10" tiledversion="1.12.2" orientation="orthogonal" renderorder="right-down" width="40" height="40" tilewidth="32" tileheight="32" infinite="0" nextlayerid="5" nextobjectid="1">
 <editorsettings>
  <export target="de_office.json" format="json"/>
 </editorsettings>
 <tileset firstgid="1" name="tileset" tilewidth="32" tileheight="32" tilecount="84" columns="12">
  <image source="tileset.png" width="384" height="224"/>
 </tileset>
 <tileset firstgid="85" source="tileset.tsx"/>
 <layer id="1" name="Tile Layer 1" width="40" height="40">
  <data encoding="csv">
0,0,0,0,0,0,0,0,0,0,0,0,0,0,0,0,0,0,0,0,0,0,0,0,0,0,87,99,99,99,87,85,85,85,85,85,85,85,85,85,
0,103,103,103,103,103,103,103,103,103,103,103,103,103,103,0,0,0,0,0,0,0,0,0,0,0,87,111,111,111,87,85,85,85,85,85,85,85,85,85,
0,157,162,162,162,162,162,162,162,162,162,162,162,162,160,0,0,0,0,0,0,0,0,0,0,0,87,135,135,135,87,85,85,85,85,85,85,85,85,85,
0,161,103,103,103,103,103,103,103,103,103,103,103,103,163,0,0,0,0,0,111,0,0,0,0,0,87,135,135,135,87,85,85,85,85,85,85,85,85,85,
0,161,103,103,103,103,103,103,103,103,103,103,103,103,103,162,162,162,162,162,160,99,99,99,99,99,99,135,135,135,99,99,99,99,99,99,99,99,99,87,
161,161,103,103,103,103,103,103,164,164,103,103,103,103,103,103,103,103,103,103,163,111,111,111,111,111,111,135,135,135,111,111,111,111,111,111,111,111,111,87,
161,161,103,103,103,103,103,103,0,0,103,103,103,103,103,103,103,103,103,103,163,135,135,135,135,135,135,135,135,135,135,135,135,135,135,135,135,135,135,87,
161,161,103,103,103,103,103,103,0,0,103,103,103,103,103,103,103,103,103,103,163,135,135,135,135,135,135,135,135,135,135,135,135,135,135,135,135,135,135,87,
0,161,103,103,103,103,103,103,103,103,103,103,103,103,103,103,103,103,103,103,163,135,135,135,135,135,135,135,135,135,135,135,135,135,135,135,135,135,135,87,
0,161,103,103,103,103,103,103,103,103,103,103,103,103,103,103,103,103,103,103,163,87,99,100,100,99,87,135,135,135,87,99,100,99,87,135,135,87,99,99,
0,161,103,103,103,103,103,103,103,103,103,103,103,103,103,103,103,103,103,103,163,87,111,112,112,111,87,135,135,135,87,111,112,111,87,135,135,87,111,111,
0,158,164,164,164,164,164,164,164,103,103,103,103,164,164,164,164,164,164,164,159,87,85,85,85,85,87,135,135,135,87,85,85,85,87,135,135,87,85,85,
99,99,99,99,100,100,99,99,99,161,103,103,163,99,99,99,100,100,99,99,99,87,85,85,85,85,87,135,135,135,87,85,110,85,87,135,135,87,85,85,
111,111,111,111,112,112,111,111,111,161,103,103,163,111,111,111,112,112,111,111,111,87,85,85,85,85,87,135,135,135,87,85,85,85,87,135,135,87,85,85,
85,0,0,0,0,0,0,0,0,161,103,103,163,0,0,0,0,0,0,0,0,87,99,100,100,99,99,135,135,135,99,99,100,99,99,135,135,99,99,87,
85,0,0,0,0,0,0,0,0,158,164,164,159,0,0,0,0,0,0,0,0,87,111,112,112,111,111,135,135,135,111,111,112,111,111,135,135,111,111,87,
85,0,0,0,0,0,0,0,0,0,0,0,0,0,0,0,0,0,0,0,0,87,152,135,135,135,135,135,135,135,135,135,135,135,135,135,135,135,150,87,
85,0,0,0,0,0,0,0,0,0,0,0,0,0,0,0,0,0,0,0,0,87,135,135,135,135,135,135,135,135,135,135,135,135,135,135,135,135,135,87,
85,0,0,0,0,0,0,0,0,0,0,0,0,0,0,0,0,0,0,0,0,87,135,135,135,135,135,135,135,135,135,135,135,135,135,135,135,135,135,87,
85,0,0,0,0,0,0,0,0,0,0,0,0,0,0,0,0,0,0,0,0,99,99,99,100,99,99,99,94,94,99,87,99,99,100,99,99,100,99,99,
85,0,0,0,0,0,0,0,0,0,0,0,0,0,0,0,0,0,0,139,139,111,111,111,112,111,111,111,94,94,111,87,111,111,112,111,111,112,111,111,
85,85,85,85,85,85,85,85,85,85,85,85,85,85,85,85,85,85,85,93,86,86,94,94,94,94,94,94,94,94,94,87,85,85,85,85,85,85,85,85,
85,85,85,85,85,85,85,85,85,85,85,85,85,85,85,85,85,85,85,88,90,90,94,94,94,94,94,94,94,94,94,87,85,85,85,85,85,85,85,85,
85,85,85,85,85,85,85,85,85,85,85,85,85,85,85,85,85,85,85,130,138,138,94,94,94,94,94,94,94,94,94,87,85,85,85,85,85,85,85,85,
85,85,85,85,85,85,85,85,85,85,85,85,85,85,85,85,85,85,85,85,139,139,87,87,87,94,94,94,87,87,87,87,85,85,85,85,85,85,85,85,
85,85,85,85,89,121,121,121,89,102,102,102,102,102,102,89,85,85,85,85,0,0,99,99,99,94,94,94,99,99,99,99,85,85,85,85,85,85,85,85,
85,85,85,85,89,121,121,121,101,114,114,114,114,114,114,89,85,85,85,85,0,0,111,111,111,99,99,99,111,111,111,111,85,85,85,85,85,85,85,85,
85,85,85,85,89,121,121,121,113,121,121,121,121,121,121,89,85,85,85,85,0,0,85,85,85,111,111,111,85,85,85,85,85,85,85,85,85,85,85,85,
85,85,85,85,89,121,121,121,121,121,121,121,121,121,121,89,85,85,85,85,0,0,85,85,85,85,85,85,85,85,85,85,85,85,85,85,85,85,85,85,
85,85,85,85,89,121,121,121,121,121,121,121,121,121,121,89,85,85,85,85,85,85,85,85,85,85,85,85,85,85,85,85,85,85,85,85,85,85,85,85,
85,85,85,85,89,121,121,121,89,121,121,121,121,121,121,89,85,85,85,85,85,85,85,85,85,85,85,85,85,85,85,85,85,85,85,85,85,85,85,85,
85,85,85,85,89,121,121,121,89,121,121,121,121,121,121,89,85,85,85,85,85,85,85,85,85,85,85,85,85,85,85,85,85,85,85,85,85,85,85,85,
89,101,102,101,101,121,121,121,101,101,101,102,101,101,89,89,85,85,85,85,85,85,85,85,85,85,85,85,85,85,85,85,85,85,85,85,85,85,85,85,
89,113,114,113,113,121,121,121,113,113,113,114,113,113,101,101,85,85,85,85,85,85,85,85,85,85,85,85,85,85,85,85,85,85,85,85,85,85,85,85,
89,121,121,121,121,121,121,121,121,121,121,121,121,121,113,113,85,85,85,85,85,85,85,85,85,85,85,85,85,85,85,85,85,85,85,85,85,85,85,85,
89,121,121,121,121,121,121,121,121,121,121,121,121,121,121,121,85,85,85,85,85,85,85,85,85,85,85,85,85,85,85,85,85,85,85,85,85,85,85,85,
89,121,121,121,121,121,121,121,121,121,121,121,121,121,121,121,85,85,85,85,85,85,85,85,85,85,85,85,85,85,85,85,85,85,85,85,85,85,85,85,
101,101,101,101,101,101,101,101,101,101,101,101,101,101,101,101,85,85,85,85,85,85,85,85,85,85,85,85,85,85,85,85,85,85,85,85,85,85,85,85,
113,113,113,113,113,113,113,113,113,113,113,113,113,113,113,113,85,85,85,85,85,85,85,85,85,85,85,85,85,85,85,85,85,85,85,85,85,85,85,85,
85,85,85,85,85,85,85,85,85,85,85,85,85,85,85,85,85,85,85,85,85,85,85,85,85,85,85,85,85,85,85,85,85,85,85,85,85,85,85,85
</data>
 </layer>
 <layer id="2" name="props" width="40" height="40">
  <data encoding="csv">
87,99,99,99,99,99,99,96,99,99,99,99,99,99,99,87,85,85,85,85,85,85,85,85,85,85,0,0,0,0,0,0,0,0,0,0,0,0,0,0,
87,111,111,111,111,111,111,108,111,111,111,111,111,111,111,87,85,85,85,85,85,85,85,85,85,85,0,0,0,0,0,0,0,0,0,0,0,0,0,0,
87,0,0,0,0,0,0,0,0,0,0,0,0,0,0,99,99,99,99,99,99,87,85,85,85,85,0,152,145,150,0,0,0,0,0,0,0,0,0,0,
87,153,154,154,154,154,154,154,154,154,154,154,155,0,0,111,111,111,111,111,95,87,85,85,85,85,0,146,0,148,0,0,0,0,0,0,0,0,0,0,
87,0,0,0,0,0,0,0,0,0,0,0,0,0,0,0,0,0,0,0,107,0,0,0,0,0,0,146,0,148,0,0,0,0,0,0,0,0,0,0,
87,0,0,0,0,0,0,0,103,103,0,0,0,0,0,0,0,0,0,0,0,0,0,0,0,0,0,146,0,148,0,0,0,0,0,0,0,0,0,0,
87,99,96,99,99,99,99,99,99,99,99,96,99,0,0,0,0,0,0,0,0,152,145,145,145,145,145,0,0,0,145,145,145,145,145,145,145,145,150,0,
87,111,108,111,111,111,111,111,111,111,111,108,111,0,0,0,0,0,0,0,0,146,0,0,0,0,0,0,0,0,0,0,0,0,0,0,0,0,148,0,
87,0,0,0,0,0,0,0,0,0,0,0,0,0,0,0,0,0,0,0,0,151,147,147,147,147,147,0,0,0,147,147,147,147,147,0,0,147,149,0,
87,0,0,0,0,0,0,0,0,0,0,0,0,0,0,0,0,0,0,0,0,0,0,0,0,0,0,146,0,148,0,0,0,0,0,146,148,0,0,0,
87,153,154,154,154,154,154,155,0,0,0,0,0,0,0,0,0,0,0,0,95,0,0,0,0,0,0,146,0,148,0,0,0,0,0,146,148,0,0,0,
87,0,0,0,0,0,0,0,0,0,0,0,0,0,0,0,0,0,0,0,107,0,0,0,0,0,0,146,0,148,0,0,0,0,0,146,148,0,0,0,
0,0,0,0,0,0,0,0,87,0,0,0,0,87,0,0,0,0,0,0,0,0,0,0,0,0,0,146,0,148,0,0,0,0,0,146,148,0,0,0,
0,0,0,0,0,0,0,0,87,0,0,0,0,87,0,0,0,0,0,0,0,0,0,0,0,0,0,146,0,148,0,0,0,0,0,146,148,0,0,0,
116,85,85,85,85,85,85,85,99,0,0,0,0,99,85,85,85,85,85,85,85,0,0,0,0,0,0,146,0,148,0,0,0,0,0,146,148,0,0,0,
128,85,85,85,85,85,85,85,111,0,0,0,0,111,85,85,85,85,85,85,85,0,95,0,0,0,0,146,0,148,0,0,0,0,0,146,148,0,95,0,
128,85,85,85,85,85,85,85,85,85,85,85,85,85,85,85,85,85,85,85,85,0,107,145,145,145,145,0,0,0,145,145,145,145,145,0,0,145,107,0,
128,85,85,85,85,85,85,85,85,85,85,85,85,85,85,85,85,85,85,85,85,0,146,0,0,0,0,0,0,0,0,0,0,0,0,0,0,0,148,0,
128,85,85,85,85,85,85,85,85,85,85,85,85,85,85,85,85,85,85,85,85,0,151,147,147,147,147,147,147,147,147,147,147,147,147,147,147,147,149,0,
128,85,85,85,85,85,85,85,85,85,85,85,85,85,85,85,85,85,85,85,85,0,0,0,0,0,0,0,0,0,0,0,0,0,0,0,0,0,0,0,
128,85,85,85,85,85,85,85,85,85,85,85,85,85,85,85,85,85,85,125,127,0,0,0,0,0,0,0,0,0,0,0,0,0,0,0,0,0,0,0,
128,0,0,0,0,0,0,0,85,0,0,0,0,0,0,0,0,85,0,0,0,0,0,0,0,0,0,0,0,0,0,0,0,0,0,0,0,0,0,116,
128,0,0,0,0,0,0,0,0,0,0,0,0,0,0,0,0,0,0,0,0,0,0,0,0,0,0,0,0,0,0,0,0,0,0,0,0,0,0,128,
128,0,0,0,0,0,0,0,0,0,0,0,0,0,0,0,0,0,0,0,0,0,0,0,0,0,0,0,0,0,0,0,0,0,0,0,0,0,0,128,
128,0,0,0,0,0,0,0,0,0,0,0,0,0,0,0,0,0,0,125,126,127,0,0,0,0,0,0,0,0,0,0,0,0,0,0,0,0,0,128,
128,0,0,0,0,0,124,0,0,0,0,0,0,0,0,0,0,0,0,0,85,85,0,0,0,0,0,0,0,0,0,0,0,0,0,0,0,0,0,128,
128,0,0,0,0,0,124,0,0,0,0,0,0,0,0,0,0,0,0,0,85,85,0,0,0,0,0,0,0,0,0,0,0,0,0,0,0,0,0,128,
128,0,0,0,0,0,136,0,0,0,0,0,0,124,0,0,0,0,0,0,85,85,0,0,0,0,0,0,0,0,0,0,0,0,0,0,0,0,0,128,
128,0,0,0,0,0,124,0,0,0,133,0,0,124,0,0,0,0,0,0,85,85,0,0,0,0,0,0,0,0,0,0,0,0,0,0,0,0,0,128,
128,0,0,0,0,0,124,0,0,0,0,0,0,124,0,0,0,0,0,0,0,0,0,0,0,0,0,0,0,0,0,0,0,0,0,0,0,0,0,128,
128,0,0,0,0,0,124,0,0,0,0,0,0,136,0,0,0,0,0,0,0,0,0,0,0,0,0,0,0,0,0,0,0,0,0,0,0,0,0,128,
140,0,0,0,0,0,124,0,0,0,0,0,0,124,0,0,0,0,0,0,0,0,0,0,0,0,0,0,0,0,0,0,0,0,0,0,0,0,0,128,
0,0,0,0,0,0,136,0,0,0,0,0,0,0,0,0,0,0,0,0,0,0,0,0,0,0,0,0,0,0,0,0,0,0,0,0,0,0,0,128,
0,0,0,0,0,0,124,0,0,0,0,0,0,0,0,0,0,0,0,0,0,0,0,0,0,0,0,0,0,0,0,0,0,0,0,0,0,0,0,128,
0,0,0,0,122,0,124,133,0,0,0,0,0,0,0,0,0,0,0,0,0,0,0,0,0,0,0,0,0,0,0,0,0,0,0,0,0,0,0,128,
0,0,0,0,134,0,124,0,0,0,0,0,0,0,0,0,0,0,0,0,0,0,0,0,0,0,0,0,0,0,0,0,0,0,0,0,0,0,0,128,
0,0,0,0,122,0,124,0,0,0,0,0,0,133,0,0,0,0,0,0,0,0,0,0,0,0,0,0,0,0,0,0,0,0,0,0,0,0,0,128,
0,0,0,0,0,0,0,0,0,0,0,0,0,0,0,0,0,0,0,0,0,0,0,0,0,0,0,0,0,0,0,0,0,0,0,0,0,131,132,128,
0,0,0,0,0,0,0,0,0,0,0,0,0,0,0,0,0,0,0,0,0,0,0,0,0,0,0,0,0,0,0,0,0,0,0,0,142,143,144,128,
0,0,0,0,0,0,0,0,0,0,0,0,0,0,0,125,126,126,126,126,126,126,126,126,126,126,126,126,126,126,126,126,126,126,126,126,126,126,126,117
</data>
 </layer>
 <layer id="4" name="object" width="40" height="40">
  <data encoding="csv">
0,0,0,0,0,0,0,0,0,0,0,0,0,0,0,0,0,0,0,0,0,0,0,0,0,0,0,0,0,0,0,0,0,0,0,0,0,0,0,0,
0,0,0,0,0,0,0,0,0,0,0,0,0,0,0,0,0,0,0,0,0,0,0,0,0,0,0,0,0,0,0,0,0,0,0,0,0,0,0,0,
0,0,0,0,0,0,0,0,0,0,0,0,0,0,0,0,0,0,0,0,0,0,0,0,0,0,0,0,0,0,0,0,0,0,0,0,0,0,0,0,
0,0,168,168,168,168,168,168,168,168,168,168,0,0,0,0,0,0,0,0,0,0,0,0,0,0,0,0,0,0,0,0,0,0,0,0,0,0,0,0,
0,0,0,0,0,0,0,0,0,0,0,0,0,0,0,0,0,0,0,0,0,0,0,0,0,0,0,0,0,0,0,0,0,0,0,0,0,0,0,0,
0,0,0,0,0,0,0,0,0,0,0,0,0,0,0,0,0,0,0,0,0,0,0,0,0,0,0,0,0,0,0,0,0,0,0,0,0,0,0,0,
0,0,0,0,0,0,0,0,0,0,0,0,0,0,0,0,0,0,0,0,0,0,0,0,0,0,0,0,0,0,0,0,0,0,0,0,0,0,0,0,
0,0,0,0,0,0,0,0,0,0,0,0,0,0,0,0,0,0,0,0,0,0,0,0,0,0,0,0,0,0,0,0,0,0,0,0,0,0,0,0,
0,0,0,0,0,0,0,0,0,0,0,0,0,0,0,0,0,0,0,0,0,0,0,0,0,0,0,0,0,0,0,0,0,0,0,0,0,0,0,0,
0,0,0,0,0,0,0,0,0,0,0,0,0,0,0,0,0,0,0,0,0,0,0,0,0,0,0,0,0,0,0,0,0,0,0,0,0,0,0,0,
0,0,167,167,167,167,167,0,0,0,0,0,0,0,0,0,0,0,0,0,0,0,0,0,0,0,0,0,0,0,0,0,0,0,0,0,0,0,0,0,
0,0,0,0,0,0,0,0,0,0,0,0,0,0,0,0,0,0,0,0,0,0,0,0,0,0,0,0,0,0,0,0,0,0,0,0,0,0,0,0,
0,0,0,0,0,0,0,0,0,0,0,0,0,0,0,0,0,0,0,0,0,0,0,0,0,0,0,0,0,0,0,0,0,0,0,0,0,0,0,0,
0,0,0,0,0,0,0,0,0,0,0,0,0,0,0,0,0,0,0,0,0,0,0,0,0,0,0,0,0,0,0,0,0,0,0,0,0,0,0,0,
0,0,0,0,0,0,0,0,0,0,0,0,0,0,0,0,0,0,0,0,0,0,0,0,0,0,0,0,0,0,0,0,0,0,0,0,0,0,0,0,
0,0,0,0,0,0,0,0,0,0,0,0,0,0,0,0,0,0,0,0,0,0,0,0,0,0,0,0,0,0,0,0,0,0,0,0,0,0,0,0,
0,0,0,0,0,0,0,0,0,0,0,0,0,0,0,0,0,0,0,0,0,0,0,0,0,0,0,0,0,0,0,0,0,0,0,0,0,0,0,0,
0,0,0,0,0,0,0,0,0,0,0,0,0,0,0,0,0,0,0,0,0,0,0,0,0,0,0,0,0,0,0,0,0,0,0,0,0,0,0,0,
0,0,0,0,0,0,0,0,0,0,0,0,0,0,0,0,0,0,0,0,0,0,0,0,0,0,0,0,0,0,0,0,0,0,0,0,0,0,0,0,
0,0,0,0,0,0,0,0,0,0,0,0,0,0,0,0,0,0,0,0,0,0,0,0,0,0,0,0,0,0,0,0,0,0,0,0,0,0,0,0,
0,0,0,0,0,0,0,0,0,0,0,0,0,0,0,0,0,0,0,0,0,0,0,0,0,0,0,0,0,0,0,0,0,0,0,0,0,0,0,0,
0,0,0,0,0,0,0,0,0,0,0,0,0,0,0,0,0,0,0,0,0,0,0,0,0,0,0,0,0,0,0,0,0,0,0,0,0,0,0,0,
0,0,0,0,0,0,0,0,0,0,0,0,0,0,0,0,0,0,0,0,0,0,0,0,0,0,0,0,0,0,0,0,0,0,0,0,0,0,0,0,
0,0,0,0,0,0,0,0,0,0,0,0,0,0,0,0,0,0,0,0,0,0,0,0,0,0,0,0,0,0,0,0,0,0,0,0,0,0,0,0,
0,0,0,0,0,0,0,0,0,0,0,0,0,0,0,0,0,0,0,0,0,0,0,0,0,0,0,0,0,0,0,0,0,0,0,0,0,0,0,0,
0,0,0,0,0,0,0,0,0,0,0,0,0,0,0,0,0,0,0,0,0,0,0,0,0,0,0,0,0,0,0,0,0,0,0,0,0,0,0,0,
0,0,0,0,0,0,0,0,0,0,0,0,0,0,0,0,0,0,0,0,0,0,0,0,0,0,0,0,0,0,0,0,0,0,0,0,0,0,0,0,
0,0,0,0,0,0,0,0,0,0,0,0,0,0,0,0,0,0,0,0,0,0,0,0,0,0,0,0,0,0,0,0,0,0,0,0,0,0,0,0,
0,0,0,0,0,0,0,0,0,0,0,0,0,0,0,0,0,0,0,0,0,0,0,0,0,0,0,0,0,0,0,0,0,0,0,0,0,0,0,0,
0,0,0,0,0,0,0,0,0,0,0,0,0,0,0,0,0,0,0,0,0,0,0,0,0,0,0,0,0,0,0,0,0,0,0,0,0,0,0,0,
0,0,0,0,0,0,0,0,0,0,0,0,0,0,0,0,0,0,0,0,0,0,0,0,0,0,0,0,0,0,0,0,0,0,0,0,0,0,0,0,
0,0,0,0,0,0,0,0,0,0,0,0,0,0,0,0,0,0,0,0,0,0,0,0,0,0,0,0,0,0,0,0,0,0,0,0,0,0,0,0,
0,0,0,0,0,0,0,0,0,0,0,0,0,0,0,0,0,0,0,0,0,0,0,0,0,0,0,0,0,0,0,0,0,0,0,0,0,0,0,0,
0,0,0,0,0,0,0,0,0,0,0,0,0,0,0,0,0,0,0,0,0,0,0,0,0,0,0,0,0,0,0,0,0,0,0,0,0,0,0,0,
0,0,0,0,0,0,0,0,0,0,0,0,0,0,0,0,0,0,0,0,0,0,0,0,0,0,0,0,0,0,0,0,0,0,0,0,0,0,0,0,
0,0,0,0,0,0,0,0,0,0,0,0,0,0,0,0,0,0,0,0,0,0,0,0,0,0,0,0,0,0,0,0,0,0,0,0,0,0,0,0,
0,0,0,0,0,0,0,0,0,0,0,0,0,0,0,0,0,0,0,0,0,0,0,0,0,0,0,0,0,0,0,0,0,0,0,0,0,0,0,0,
0,0,0,0,0,0,0,0,0,0,0,0,0,0,0,0,0,0,0,0,0,0,0,0,0,0,0,0,0,0,0,0,0,0,0,0,0,0,0,0,
0,0,0,0,0,0,0,0,0,0,0,0,0,0,0,0,0,0,0,0,0,0,0,0,0,0,0,0,0,0,0,0,0,0,0,0,0,0,0,0,
0,0,0,0,0,0,0,0,0,0,0,0,0,0,0,0,0,0,0,0,0,0,0,0,0,0,0,0,0,0,0,0,0,0,0,0,0,0,0,0
</data>
 </layer>
 <layer id="3" name="collisions" width="40" height="40">
  <data encoding="csv">
165,165,165,165,165,165,165,165,165,165,165,165,165,165,165,165,0,0,0,0,0,0,0,0,0,0,165,165,165,165,165,0,0,0,0,0,0,0,0,0,
165,165,165,165,165,165,165,165,165,165,165,165,165,165,165,165,0,0,0,0,0,0,0,0,0,0,165,165,165,165,165,0,0,0,0,0,0,0,0,0,
165,0,0,0,0,0,0,0,0,0,0,0,0,0,0,165,165,165,165,165,165,165,0,0,0,0,165,0,0,0,165,0,0,0,0,0,0,0,0,0,
165,165,165,165,165,165,165,165,165,165,165,165,165,0,0,165,165,165,165,165,165,165,0,0,0,0,165,0,0,0,165,0,0,0,0,0,0,0,0,0,
165,0,0,0,0,0,0,0,0,0,0,0,0,0,0,0,0,0,0,0,165,165,165,165,165,165,165,0,0,0,165,165,165,165,165,165,165,165,165,165,
165,0,0,0,0,0,0,0,0,0,0,0,0,0,0,0,0,0,0,0,0,165,165,165,165,165,165,0,0,0,165,165,165,165,165,165,165,165,165,165,
165,165,165,165,165,165,165,165,165,165,165,165,165,0,0,0,0,0,0,0,0,0,0,0,0,0,0,0,0,0,0,0,0,0,0,0,0,0,0,165,
165,165,165,165,165,165,165,165,165,165,165,165,165,0,0,0,0,0,0,0,0,0,0,0,0,0,0,0,0,0,0,0,0,0,0,0,0,0,0,165,
165,0,0,0,0,0,0,0,0,0,0,0,0,0,0,0,0,0,0,0,0,0,0,0,0,0,0,0,0,0,0,0,0,0,0,0,0,0,0,165,
165,0,0,0,0,0,0,0,0,0,0,0,0,0,0,0,0,0,0,0,0,165,165,165,165,165,165,0,0,0,165,165,165,165,165,0,0,165,165,165,
165,165,165,165,165,165,165,165,0,0,0,0,0,0,0,0,0,0,0,0,0,165,165,165,165,165,165,0,0,0,165,165,165,165,165,0,0,165,165,165,
165,0,0,0,0,0,0,0,0,0,0,0,0,0,0,0,0,0,0,0,165,165,0,0,0,0,165,0,0,0,165,0,0,0,165,0,0,165,0,0,
165,165,165,165,165,165,165,165,165,0,0,0,0,165,165,165,165,165,165,165,165,165,0,0,0,0,165,0,0,0,165,0,0,0,165,0,0,165,0,0,
165,165,165,165,165,165,165,165,165,0,0,0,0,165,165,165,165,165,165,165,165,165,0,0,0,0,165,0,0,0,165,0,0,0,165,0,0,165,0,0,
165,0,0,0,0,0,0,0,165,0,0,0,0,165,0,0,0,0,0,0,0,165,165,165,165,165,165,0,0,0,165,165,165,165,165,0,0,165,165,165,
165,0,0,0,0,0,0,0,165,0,0,0,0,165,0,0,0,0,0,0,0,165,165,165,165,165,165,0,0,0,165,165,165,165,165,0,0,165,165,165,
165,0,0,0,0,0,0,0,0,0,0,0,0,0,0,0,0,0,0,0,0,165,165,0,0,0,0,0,0,0,0,0,0,0,0,0,0,0,165,165,
165,0,0,0,0,0,0,0,0,0,0,0,0,0,0,0,0,0,0,0,0,165,0,0,0,0,0,0,0,0,0,0,0,0,0,0,0,0,0,165,
165,0,0,0,0,0,0,0,0,0,0,0,0,0,0,0,0,0,0,0,0,165,0,0,0,0,0,0,0,0,0,0,0,0,0,0,0,0,0,165,
165,0,0,0,0,0,0,0,0,0,0,0,0,0,0,0,0,0,0,0,0,165,165,165,165,165,165,165,0,0,165,165,165,165,165,165,165,165,165,165,
165,0,0,0,0,0,0,0,0,0,0,0,0,0,0,0,0,0,0,165,165,165,165,165,165,165,165,165,0,0,165,165,165,165,165,165,165,165,165,165,
165,0,0,0,0,0,0,0,0,0,0,0,0,0,0,0,0,0,0,0,0,0,0,0,0,0,0,0,0,0,0,165,0,0,0,0,0,0,0,165,
165,0,0,0,0,0,0,0,0,0,0,0,0,0,0,0,0,0,0,0,0,0,0,0,0,0,0,0,0,0,0,165,0,0,0,0,0,0,0,165,
165,0,0,0,0,0,0,0,0,0,0,0,0,0,0,0,0,0,0,0,0,0,0,0,0,0,0,0,0,0,0,165,0,0,0,0,0,0,0,165,
165,0,0,0,0,0,0,0,0,0,0,0,0,0,0,0,0,0,0,165,165,165,165,165,165,0,0,0,165,165,165,165,0,0,0,0,0,0,0,165,
165,0,0,0,165,0,0,0,165,165,165,165,165,165,165,165,0,0,0,0,0,0,165,165,165,0,0,0,165,165,165,165,0,0,0,0,0,0,0,165,
165,0,0,0,165,0,0,0,165,165,165,165,165,165,165,165,0,0,0,0,0,0,165,165,165,165,165,165,165,165,165,165,0,0,0,0,0,0,0,165,
165,0,0,0,165,0,0,0,165,0,0,0,0,0,0,165,0,0,0,0,0,0,0,0,0,165,165,165,0,0,0,0,0,0,0,0,0,0,0,165,
165,0,0,0,165,0,0,0,0,0,0,0,0,0,0,165,0,0,0,0,0,0,0,0,0,0,0,0,0,0,0,0,0,0,0,0,0,0,0,165,
165,0,0,0,165,0,0,0,0,0,0,0,0,0,0,165,0,0,0,0,0,0,0,0,0,0,0,0,0,0,0,0,0,0,0,0,0,0,0,165,
165,0,0,0,165,0,0,0,165,0,0,0,0,0,0,165,0,0,0,0,0,0,0,0,0,0,0,0,0,0,0,0,0,0,0,0,0,0,0,165,
165,0,0,0,165,0,0,0,165,0,0,0,0,0,0,165,0,0,0,0,0,0,0,0,0,0,0,0,0,0,0,0,0,0,0,0,0,0,0,165,
165,165,165,165,165,0,0,0,165,165,165,165,165,165,165,165,0,0,0,0,0,0,0,0,0,0,0,0,0,0,0,0,0,0,0,0,0,0,0,165,
165,165,165,165,165,0,0,0,165,165,165,165,165,165,165,165,0,0,0,0,0,0,0,0,0,0,0,0,0,0,0,0,0,0,0,0,0,0,0,165,
165,0,0,0,0,0,0,0,0,0,0,0,0,0,165,165,0,0,0,0,0,0,0,0,0,0,0,0,0,0,0,0,0,0,0,0,0,0,0,165,
165,0,0,0,0,0,0,0,0,0,0,0,0,0,0,0,0,0,0,0,0,0,0,0,0,0,0,0,0,0,0,0,0,0,0,0,0,0,0,165,
165,0,0,0,0,0,0,0,0,0,0,0,0,0,0,0,0,0,0,0,0,0,0,0,0,0,0,0,0,0,0,0,0,0,0,0,0,0,0,165,
165,165,165,165,165,165,165,165,165,165,165,165,165,165,165,165,0,0,0,0,0,0,0,0,0,0,0,0,0,0,0,0,0,0,0,0,0,0,0,165,
165,165,165,165,165,165,165,165,165,165,165,165,165,165,165,165,0,0,0,0,0,0,0,0,0,0,0,0,0,0,0,0,0,0,0,0,165,165,165,165,
0,0,0,0,0,0,0,0,0,0,0,0,0,0,0,165,165,165,165,165,165,165,165,165,165,165,165,165,165,165,165,165,165,165,165,165,165,165,165,165
</data>
 </layer>
</map>
